manual/svg/flags/my.svg

<svg xmlns="http://www.w3.org/2000/svg" xmlns:xlink="http://www.w3.org/1999/xlink" viewBox="0 0 2800 1400">
<rect width="2800" height="1400" id="red" style="fill:#cc0001"/>
<rect width="2800" height="100" y="1300" id="white" style="fill:#fff"/>
<use transform="translate(0,-200)" id="use3035" xlink:href="#white"/>
<use transform="translate(0,-400)" id="use3038" xlink:href="#white"/>
<use transform="translate(0,-600)" id="use3062" xlink:href="#white"/>
<use transform="translate(0,-800)" id="use3064" xlink:href="#white"/>
<use transform="translate(0,-1000)" id="use3066" xlink:href="#white"/>
<use transform="translate(0,-1200)" id="use3068" xlink:href="#white"/>
<rect width="1400" height="800" id="blue" style="fill:#010066"/>
<path d="M 576,100 C 409.85356,100 275,234.40553 275,400 C 275,565.59446 409.85356,699.99999 576,700 C 636.02725,700 691.95466,682.43566 738.92693,652.21675 C 711.57383,661.65623 682.2175,666.81914 651.65599,666.81914 C 504.3291,666.81915 384.75944,547.64674 384.75944,400.80929 C 384.75944,253.97184 504.32908,134.79944 651.65599,134.79944 C 684.21403,134.79944 715.40185,140.61419 744.2578,151.26671 C 696.21698,118.90999 638.30493,100 576,100 z" id="path4945" style="fill:#fc0"/>
<path d="M 914.28574,471.42858 L 814.74817,418.17806 L 844.17832,527.16068 L 777.60261,435.99589 L 756.83247,546.9551 L 736.40474,435.93234 L 669.5481,526.89131 L 699.31432,418.00001 L 599.61295,470.94319 L 673.67755,385.75059 L 560.87853,390.19195 L 664.57212,345.5715 L 561.01668,300.63137 L 673.80146,305.42069 L 600.00003,220.00001 L 699.53759,273.25053 L 670.10745,164.26791 L 736.68316,255.4327 L 757.4533,144.47349 L 777.88103,255.49624 L 844.73767,164.53728 L 814.97145,273.42858 L 914.67282,220.4854 L 840.60822,305.67799 L 953.40723,301.23664 L 849.71365,345.85709 L 953.26909,390.79722 L 840.48431,386.0079 z" transform="matrix(1.2737922,0,0,1.2422928,-89.4427,-29.478379)" id="path4959" style="fill:#fc0"/>
</svg>

<svg viewBox="0 0 2800 1400" xmlns="http://www.w3.org/2000/svg" xmlns:xlink="http://www.w3.org/1999/xlink">
<rect width="2800" height="1400" fill="#cc0001"/>
<rect id="my-a" y="1300" width="2800" height="100" fill="#fff"/>
<use transform="translate(0,-200)" xlink:href="#my-a"/>
<use transform="translate(0,-400)" xlink:href="#my-a"/>
<use transform="translate(0,-600)" xlink:href="#my-a"/>
<use transform="translate(0,-800)" xlink:href="#my-a"/>
<use transform="translate(0 -1e3)" xlink:href="#my-a"/>
<use transform="translate(0,-1200)" xlink:href="#my-a"/>
<rect width="1400" height="800" fill="#010066"/>
<path d="m576 100c-166.15 0-301 134.41-301 300 0 165.59 134.85 300 301 300 60.027 0 115.95-17.564 162.93-47.783-27.353 9.4395-56.709 14.602-87.271 14.602-147.33 1e-5 -266.9-119.17-266.9-266.01s119.57-266.01 266.9-266.01c32.558 0 63.746 5.8148 92.602 16.467-48.041-32.357-105.95-51.267-168.26-51.267z" fill="#fc0"/>
<path transform="matrix(1.2738 0 0 1.2423 -89.443 -29.478)" d="m914.29 471.43l-99.538-53.251 29.43 108.98-66.576-91.165-20.77 110.96-20.428-111.02-66.857 90.959 29.766-108.89-99.701 52.943 74.065-85.193-112.8 4.4414 103.69-44.62-103.56-44.94 112.78 4.7893-73.801-85.421 99.538 53.251-29.43-108.98 66.576 91.165 20.77-110.96 20.428 111.02 66.857-90.959-29.766 108.89 99.701-52.943-74.065 85.193 112.8-4.4414-103.69 44.62 103.56 44.94-112.78-4.7893z" fill="#fc0"/>
</svg>
